X:5
T:Humours of Loughrea, The
R:reel
S:From Mary Bergin. Some of the variations are from other players.
D:Fintan Vallely.
Z:id:hn-reel-5
M:C|
K:G
~G3A BA~A2|bgag gedB|~G3A BAAG|1 ~A3G EGDE:|2 ~A3G EGBd||
g2fg fede|ge~e2 g2ba|ge~e2 edBd|fgfg ~e3f|
g2ge d2Bd|ge~e2 gaba|~g3b a2ge|dgbg aged||
P:Variations:
~G3d BA~A2|b2ag gedB|~G3A BAGE|~A3G EGDE|
~G3d BA~A2|dgba gedB|~G3A BAGE|~A3G EGBd||
g2eg fdBd|ge~e2 gaba|ge~e2 edBd|egfd ~e3f|
g2eg edBd|ge~e2 gaba|~g3b aege|dgbg egdB||

